X:1
T:Étude Op. 10 No. 10 in A♭ major
T:Étude Op. 10 No. 10 in A♭ major
T:Frédéric Chopin
C:Frédéric Chopin
%%score { ( 1 4 ) | ( 2 3 ) }
L:1/8
Q:1/4=60
M:12/8
K:Ab
V:1 treble nm="鋼琴" snm="Pno."
V:4 treble 
V:2 bass 
V:3 bass 
V:1
!p!"^Assai vivace" ((E | %1
[Q:1/4=268] A)([ca]B) (!>![db]=B)([=d=b] c)([ec']^c) (!>![=e^c']=d)([f=d'] | %2
 _e)([ge']f) (!>![af']e)([ge'] c)([ec']B) (!>![db]c)[ec'] | %3
!>(! B[db]c !>![ec']G[Bg] A[ca]G !>![Bg]A[ca])!>)! | %4
!pp! (F[Af]G !>![Bg]F[Af] _F[G_f]E !>![Ge]G[Bg] | %5
 A!<(![ca]B [db]=B[=d=b] c[ec']^c [=e^c']=d[f=d']!<)! | %6
!mf! !>!_e[ge']f !>![af']e[ge']!>(! !>!c[ec']B !>![db]c[ec'])!>)! | %7
!p! (B[=db]"_cresc."c !>![ec']d[f=d'] e[ge']f !>![af']^f[=a^f'] | %8
 !>!g[bg'][Q:1/4=258]_a !>![c'a'][Q:1/4=248]=d[f=d']!f![Q:1/4=238]"_dim." f"^dolce"[af'][Q:1/4=228] =e!>![g=e'][Q:1/4=218] _e[g_e']) | %9
!p![Q:1/4=268] (e[ca] B[db] =B[=d=b] c[ec'] ^c[=e^c'] d[f=d'] | %10
 _e[ge'] f[af'] e[ge'] c[ec']!<(! B[db] c[ec']!<)! |!mf! B[db] c[ec'] G[Bg] A[ca] G[Bg] A[ca] | %12
 F[Af] G[Bg] F[Af] _F[G_f]!>(! E[Ge] G[Bg])!>)! | %13
"_staccato"!p! .A.[ca] .B.[db] .=B.[=d=b] .c!<(!.[ec'] .^c.[=e^c'] .=d.[f=d'] | %14
 ._e.[ge']!<)!!mf! .f.[af'] .e.[ge'] .c.[ec'] .B"_cresc.".[db] .c.[ec'] | %15
 .d.[fd'] .e.[ge'] .f.[af']!8va(! .g.[bg'] .a.[_c'a'] .=a.[=c'=a'] | %16
[Q:1/4=258] .b.[d'b'][Q:1/4=238] .c'.[e'c''][Q:1/4=218] .g.[bg'][Q:1/4=208] (!>!a[c'a']!8va)![Q:1/4=198]a [ca][Q:1/4=188]A[Q:1/4=40][ca]) || %17
[K:E]!f![Q:1/4=268]"^legatissimo" G[Bg]A !>![ca]G[Bg] F[^Af]C !>![Ec]D[Fd] | %18
 E[Ge]G !>![Bg]F[=Af] E[Ge]B, !>![DB]C[Ec] | E[Ge]D !>![Fd]E[Ge] G[Bg]F!>(! !>![Af]G[Bg]!>)! | %20
!mf!!<(! B[db]A !>![ca]B[db]!<)!!f!!>(! d!>![fd']c !>![ec']B!>![db]!>)! | %21
!p! (G[Bg]) (A[=ca]) (G[Bg]) (F[Af]) (=C[Ec]) (E[Ge]) | %22
[Q:1/4=258] (F[Af])[Q:1/4=238] (G[Bg])[Q:1/4=218] (F[Af])[Q:1/4=208] E[Ge][Q:1/4=198] D[Gd][Q:1/4=188] =D[G=d] || %23
[K:Ab][Q:1/4=268] E[Ge] F[Af] ^F[=A^f]!<(! G[Bg] _A[c_a] B[db] | %24
 c[ec'] ^c[=e^c'] =d[f=d'] _e[_g_e'] f[af'] g[b_g']!<)! | %25
!f!!>(! _g[b_g'] f[af'] c[ec']!>)!!>(! e[_ge'] d[_fd'] B[db]!>)! | %26
!mf! B[db] __B[d__b] A[da]!>(! =G[c=g] _G[c_g] E[Ge]!>)! | %27
!p!"^sotto voce" (D[Fd]) (D[Fd]) (D[Fd])"_dimin." (D[Fd]D !>![Fd]D[Fd]) | %28
[Q:1/4=258] (D"_poco rit."[_Fd])!p![Q:1/4=238] (D[Fd])[Q:1/4=218] (D[Fd])[Q:1/4=208]!>(! (D[Fd][Q:1/4=198]D !>![Fd][Q:1/4=188]d!>)![Q:1/4=80][_fd']) || %29
[K:E]!pp![Q:1/4=268]"^a tempo" c[ec']=d [f=d']c[ec'] B[^db]F [Af]G[Bg] | %30
 A[ca]c [ec']B[=db] A[ca]E [Ge]F[Af] | A[ca]G [Bg]A[ca] c[ec']B [=db]c[ec'] | %32
 e!<(![ge']=d [f=d']e[ge']!<)!!f!!>(! g[bg']f [af']e!>)![ge'] | %33
!p! (c[ec']) (=d[=f=d']) (c[ec']) (B[db]) (=F[A=f]) (A[ca]) | %34
[Q:1/4=258] B[=db][Q:1/4=238] c[ec'][Q:1/4=218] B[db][Q:1/4=208] A[ca][Q:1/4=198] G[cg][Q:1/4=188] =G[Q:1/4=80][c=g] || %35
[K:Ab][Q:1/4=268] A[ca] B[db] =B[=d=b]"_cresc." c[ec'] _d[f_d'] e[_ge'] | %36
 f[af'] _g[__b_g'] =g[_b=g']!8va(! a[_c'a'] b[d'b'] c'[e'_c''] | %37
!f! !>!_c'[e'_c''] b[d'b'] f[af'] !>!a[_c'a'] _g[c'_g']!8va)! e[_ge'] | %38
!>(! !>!e[_ge'] __e[g__e'] d!>)!!p![gd']!f!!>(! d[fd'] =c[f=c'] _c!>)![f_c'] | %39
!p! B[=db] =c[e=c']"_cresc." ^c[=e^c'] =d[f=d']_e [=ge']f[af'] | %40
 a[c'a']g [bg']=d[f=d'] f[_af']e [_g_e']c[ec'] | %41
 (c[ec']_c !>![e_c']B[eb]) (=c[=e=c']=B !>![e=b]_B[e_b]) | %42
 (c[fc']_c !>![f_c']B[fb]) (B[=db]g !>![bg']f[af']) | %43
!f! (e[ge']_f [a_f']f'!8va(![a'_f''] f'!8va)![af']f [Af]_F[Af]) | %44
 (E[Ge]_F [A_f]f[a_f']!8va(! f'[a'_f'']f'!8va)! [af']f[Af]) | %45
 (E[Ge]e [ge']e[Ge]) (!>!_G[=A_g]g"_cresc." [=a_g']g[Ag]) | %46
 =F[_A=f]f [_af']f[Af] !>!A[_ca]a [_c'a']a[ca] | %47
 G[Bg]g [bg']g[Bg] !>!B[db]b!8va(! [d'b']b!8va)![db] | %48
 =A[=c=a]a [=c'=a']a[ca] !>!c[ec']c'!8va(! [e'c'']!8va)!c'[ec'] | %49
!ff! d[ed']d'!8va(! !>![e'd'']d'[e'd''] d'[e'd'']d' !>![e'd'']d'[e'd''] | %50
 d'"_diminuendo e leggierissimo"[e'd'']d' !>![e'd'']d'[e'd''] d'[e'd'']d' !>![e'd'']d'[e'd''] | %51
 d'[e'd'']d' [d'c'']c'[d'c''] c'[=d'c'']c' [c'=b']=b[c'b'] | %52
 _c'[_d'_c'']c' [d'b']b[d'b'] b[=c'b']b [c'=a']=a[c'a'] | %53
 =a[=b=a']_a [_c'_a']a[c'a'] a[c'a']a [c'a']a[c'a'] | %54
"_dolciss."!p![Q:1/4=258] a"^rallent."[_c'a'][Q:1/4=238]_g!8va)! [__b_g'][Q:1/4=218]_f[a_f'][Q:1/4=198] __e[g__e'][Q:1/4=178]_c [ec'][Q:1/4=158]A[Q:1/4=72][ca] | %55
[Q:1/4=268]"^a tempo"!p! A[ca]B [db]=B"_cresc."[=d=b] c[ec']^c [=e^c']=d!mp!!<(![f=d'] | %56
 _e[ge']f!<)!!f!!>(! [af']e[ge'] c[ec']!>)!!p!B [db]c[ec'] | B[db]c [ec']G[Bg] A[ca]G [Bg]A[ca] | %58
 F[Af]G [Bg]F[Af] _F[G_f]E [Ge]G[Bg] |!p! A[ca] B[db] =B[=d=b] c[ec'] ^c[=e^c'] =d[f=d'] | %60
 _e[ge'] f[af'] e[ge'] c[ec'] B[db] c[ec'] | d[fd']!<(! e[ge'] f[af'] =e[bg'] f[c'a'] g[d'b']!<)! | %62
!f! g[d'b'] a[c'a'] =e[g=e'] e[bg'] f[af'] d[fd'] | %63
 f[af'] _f[a_f'] e[ae'] e[ge'] =d[g=d'] _d[g_d'] | %64
!>(!!8va(! d'[f'd''] c'[f'c''] g!>)!!mp![bg']!f!!>(! b[_d'b'] a[_c'a']!8va)! f!>)!!mp![af'] | %65
 f[af'] _f[a_f'] e[ae'] =f[=a=f'] _f[=a_f'] e[ae'] | %66
 f[bf'] _f[b_f'] e[be'] e[c'e'] e[d'e'] e[ge'] | %67
 f[af'] _f[a_f']"_cresc." e[ae'] =f[=a=f'] _f[=a_f'] e[ae'] | %68
!f![Q:1/4=258] =d"_poco rit."[_a=f'][Q:1/4=238] g[bg'][Q:1/4=218] f[c'a'][Q:1/4=198]!>(! e!8va(![d'b'][Q:1/4=178] c'[e'c''][Q:1/4=158] b[Q:1/4=88][d'g']!>)! | %69
!p![Q:1/4=268]"^a tempo"!<(! a[c'a']b [d'b']=b[=d'=b'] c'[e'c'']^c' [=e'^c'']=d'[f'=d''] | %70
 _e'[g'e'']f' [a'f'']e'[g'e'']!<)!!f!"_sempre dim. e legatissimo" c'[e'c'']b [d'b']c'[e'c''] | %71
 b[d'b']c' [e'c'']g[bg'] a[c'a']g [bg']a[c'a']!8va)! | e[ge']f [af']e[ge'] c[ec']B [db]c[ec'] | %73
[Q:1/4=258] B[db]c[Q:1/4=248] [ec']G[Bg][Q:1/4=238] A[ca]d[Q:1/4=228] [fd']c[ec'] | %74
[Q:1/4=218] A!p!"_smorz."[ca]d[Q:1/4=208] [fd']c[ec'][Q:1/4=198] A[ca]d[Q:1/4=188] [fd']c[ec'] | %75
!pp! A[ca]a [c'a']a[ca] A[CA]A, [D_FA]A[d_fa] | %76
[Q:1/4=178] A[cea]a[Q:1/4=168] [c'e'a']a"_riten."[cea][Q:1/4=148]"^ten."x[Q:1/4=128][CE][Q:1/4=108]A,[Q:1/4=88] [B,D][Q:1/4=68][A,C][Q:1/4=48][B,D] | %77
[Q:1/4=80] [CEA]12 |] %78
V:2
 z |!ped! (A,,CA,xEA,) (A,,CA,xEA,)!ped-up! |!ped! A,,DG,xEG,!ped-up!!ped! A,,CA,xEA,!ped-up! | %3
!ped! A,,DG,xEG,!ped-up!!ped! A,,CA,xEA,!ped-up! | %4
!ped! B,,=DB,A,DB,!ped-up!!ped! E,,_DB,E,DB,!ped-up! |!ped! (A,,CA,xEA,) (A,,CA,xEA,)!ped-up! | %6
!ped! A,,DG,xEG,!ped-up!!ped! A,,CA,xEA,!ped-up! | %7
!ped! B,,=DB,A,DB,!ped-up!!ped! E,[K:treble]GE!ped-up!C=AE | %8
 B,BEB,_A=D[K:bass]!ped! E,GExGE!ped-up! |!ped! A,,CA,E,EA, A,,CA,E,EA,!ped-up! | %10
!ped! A,,DG,E,EG,!ped-up!!ped! A,,CA,E,EA,!ped-up! | %11
!ped! A,,DG,E,EG,!ped-up!!ped! A,,CA,E,EA,!ped-up! | %12
!ped! B,,=DB,A,DB,!ped-up!!ped! E,,_DB,E,DB,!ped-up! | .A,,.C.A,.E,.E.A, .A,,.C.A,.E,.E.A, | %14
 .A,,.D.G,.E,.E.G, .A,,.C.A,._G,.E.A, | .D,.F.D.A,.F.D!ped! .D,._F.D.A,.F.D!ped-up! | %16
!ped! .E,.G.E.D.G.E!ped-up!!ped! (A,,CA,E,EA,)!ped-up! || %17
[K:E]!ped! E,,B,E,B,,B,E,!ped-up!!ped! E,,^A,F,C,A,F,!ped-up! | %18
!ped! E,,=A,D,B,,B,D,!ped-up!!ped! E,,G,E,B,,B,E,!ped-up! | %19
!ped! E,,A,F,B,,B,F,!ped-up!!ped! E,,A,D,B,,B,D,!ped-up! | %20
!ped! E,,A,F,B,,B,F,!ped-up!!ped! E,,A,D,B,,B,F,!ped-up! | %21
!ped! E,,B,E,B,,B,E,!ped-up!!ped! E,,A,E,=C,A,E,!ped-up! | %22
!ped! E,,A,D,B,,B,D,!ped-up!!ped! E,,G,E,B,,B,E,!ped-up! || %23
[K:Ab]!ped! E,,DG,E,EG,!ped-up!!ped! E,,DG,E,EG,!ped-up! | %24
!ped! A,,CA,_G,EA,!ped-up!!ped! A,,CA,_G,EA,!ped-up! | %25
!ped! D,,FDA,FD!ped-up!!ped! =G,,DB,_F,DB,!ped-up! | %26
!ped! A,,DA,=F,DA,!ped-up!!ped! A,,CA,_G,CA,!ped-up! | %27
!ped! D,,A,D,A,,A,D,!ped-up!!ped! D,,A,D,A,,A,D,!ped-up! | %28
!ped! D,,A,D,A,,A,D,!ped-up!!ped! D,,A,D,A,,A,D,!ped-up! || %29
[K:E]!ped! A,,EA,E,EA,!ped-up!!ped! A,,^DA,F,DA,!ped-up! | %30
!ped! A,,=DG,E,EG,!ped-up!!ped! A,,CA,E,EA,!ped-up! | %31
!ped! A,,=DB,E,EB,!ped-up!!ped! A,,DG,E,EG,!ped-up! |!ped! A,,=DB,E,EB, A,,DG,E,EB,!ped-up! | %33
!ped! A,,EA,E,EA,!ped-up!!ped! A,,=DA,=F,DA,!ped-up! | %34
!ped! A,,=DG,E,EG,!ped-up!!ped! A,,CA,E,EA,!ped-up! || %35
[K:Ab]!ped! A,,CA,_G,EA,!ped-up!!ped! A,,CA,G,EA,!ped-up! | %36
!ped! D,FD_CAD!ped-up!!ped! D,FDCAD!ped-up! | %37
[K:treble]!ped! _G,_GDB,BD!ped-up![K:bass]!ped! _C,E_CA,_GC!ped-up! | %38
!ped! D,DB,_G,_GB,!ped-up!!ped! D,F_CA,AC!ped-up! | %39
!ped! =D,FB,A,AB,!ped-up!!ped! B,,=DB,A,AB,!ped-up! | %40
!ped! E,EB,G,GB,!ped-up!!ped! =A,,EC_G,_GC!ped-up! | %41
!ped! B,,EB,=G,=GB,!ped-up!!ped! B,,=ECG,GC!ped-up! | %42
!ped! (B,,F=DA,AD)!ped-up!!ped! (B,,DB,A,DB,)!ped-up! | %43
 [E,G,E]2 z!ped! [E,A,_C=D]6 E,,2 z!ped-up! | %44
 [E,B,]2 z!ped! [E,A,_C=D]3 E,,2 z [E,-A,CD]3!ped-up! | %45
!ped! [E,G,B,]E,, z z2 ([E,B,]!ped-up!!ped! [E,__D])E,, z z2 ([E,D]!ped-up! | %46
!ped! [E,_C])E,, z z2 ([E,C]!ped-up!!ped! [_E,__E])E,, z z2 ([E,E]!ped-up! | %47
!ped! [E,D])E,, z z2 ([E,D]!ped-up!!ped! [E,_F])E,, z z2 ([E,F]!ped-up! | %48
!ped! [E,E])E,, z z2 ([E,E]!ped-up!!ped! [E,_G])E,, z z2 ([E,G]!ped-up! | %49
!ped! !arpeggio!.[E,B,D=G]3)[K:treble] !>![Bd=g]6!ped-up! ([=A_d-^f]3 | %50
 [Bdg]2) z [=A_d-^f]3 [Bdg]2 z [d_g-]3 | [eg]6 [=df]6 | [_d_f]6 [=ce]6 | [_c__e]6 z2 z z2 z | %54
[K:bass]!ped! _F,,z_C, __E,A,__E A3 z2 z!ped-up! |!ped! A,,CA,E,EA, A,,CA,E,EA,!ped-up! | %56
!ped! A,,DG,E,EG,!ped-up!!ped! A,,CA,E,EA,!ped-up! | %57
!ped! A,,DG,E,EG,!ped-up!!ped! A,,CA,E,EA,!ped-up! | %58
!ped! B,,=DB,A,DB,!ped-up!!ped! E,,_DB,E,DB,!ped-up! |!ped! A,,CA,E,EA, A,,CA,E,EA,!ped-up! | %60
!ped! A,,DG,E,EG,!ped-up!!ped! A,,CA,E,EA,!ped-up! |!ped! D,FDA,FD!ped-up!!ped! C,=ECB,GC!ped-up! | %62
!ped! F,FCA,AC!ped-up!!ped! D,FB,A,FB,!ped-up! |!ped! E,ECA,AC!ped-up!!ped! E,GDB,GD!ped-up! | %64
!ped! F,FCA,AC!ped-up!!ped! =D,F=B,A,AB,!ped-up! |!ped! E,AECAE!ped-up!!ped! E,=AECAE!ped-up! | %66
!ped! E,GEDBE!ped-up!!ped! E,GEDGE!ped-up! |!ped! E,AECAE!ped-up!!ped! E,=AECAE!ped-up! | %68
!ped! E,_A=DB,AD!ped-up!!ped! E,G_E_DGE!ped-up! |!ped! A,,CA,E,EA, A,,CA,E,EA,!ped-up! | %70
!ped! A,,DG,E,EG,!ped-up!!ped! A,,CA,E,EA,!ped-up! | %71
!ped! A,,DG,E,EG,!ped-up!!ped! A,,CA,E,EA,!ped-up! | %72
!ped! A,,DG,E,EG,!ped-up!!ped! A,,CA,E,EA,!ped-up! |!ped! A,,DG,E,EG,!ped-up!!ped! A,,CA,E,EA, | %74
 A,,CA,E,EA, A,,CA,E,EA,!ped-up! |!ped! A,,6 z2!ped-up!!ped! z !>![D,,D,]3!ped-up! | %76
!ped! [A,,,A,,]12-!ped-up! | [A,,,A,,]12 |] %78
V:3
 x | x3 E,4 x2 E,3- | x2 x E,4 x2 E,3- | x2 x E,4 x2 E,2 x | x3 A,2 x4 E,2 x | x3 E,4 x2 E,3- | %6
 x2 x E,4 x2 E,2 x | x3 A,2 x2[K:treble] x2 C2 x | B,2 x B,2 x[K:bass] x3 D3 | x12 | x12 | x12 | %12
 x12 | x12 | x12 | x12 | x12 ||[K:E] x12 | x12 | x12 | x12 | x12 | x12 ||[K:Ab] x12 | x12 | x12 | %26
 x12 | x12 | x12 ||[K:E] x12 | x12 | x12 | x12 | x12 | x12 ||[K:Ab] x12 | x12 | %37
[K:treble] x6[K:bass] x6 | x12 | x12 | x12 | x12 | x12 | x12 | x12 | x12 | x12 | x12 | x12 | %49
 x3[K:treble] x9 | x9 __B3- | B3 A6 =G3- | G3 _G6 =F3- | F3 _F3 x6 |[K:bass] x12 | x12 | x12 | %57
 x12 | x12 | x12 | x12 | x12 | x12 | x12 | x12 | x12 | x12 | x12 | x12 | x12 | x12 | x12 | x12 | %73
 x12 | x12 | x12 | x12 | x12 |] %78
V:4
 x | x12 | x12 | x12 | x12 | x12 | x12 | x12 | x12 | e2 B2 =B2 c2 ^c2 =d2 | e2 f2 e2 c2 B2 c2 | %11
 B2 c2 G2 A2 G2 A2 | F2 G2 F2 _F2 E2 G2 | x12 | x12 | x6!8va(! x6 | x8!8va)! x4 || %17
[K:E] G2 A2 G2 F2 C2 D2 | x12 | x12 | x12 | x12 | x12 ||[K:Ab] x12 | x12 | x12 | x12 | x12 | x12 || %29
[K:E] x12 | x12 | x12 | x12 | x12 | x12 ||[K:Ab] x12 | x6!8va(! x6 | x10!8va)! x2 | x12 | x12 | %40
 x12 | x12 | x12 | x5!8va(! x2!8va)! x5 | x6!8va(! x3!8va)! x3 | x12 | x12 | x9!8va(! x2!8va)! x | %48
 x9!8va(! x!8va)! x2 | x3!8va(! x9 | x12 | x12 | x12 | x12 | x3!8va)! x9 | x12 | x12 | x12 | x12 | %59
 x12 | x12 | x12 | x12 | x12 |!8va(! x10!8va)! x2 | x12 | x12 | x12 | x7!8va(! x5 | x12 | x12 | %71
 x12!8va)! | x12 | x12 | x12 | x12 | x6 A6 | x12 |] %78

